X:53204
F:http://www.vwml.org/record/HAM/5/32/4
%%VWML:HAM-5-32-4-0
T:Glastonbury Street
O:England
A:Dorset
S:Mrs Marina Russell, Upwey coll. c1906 HED Hammond
N:This transcription is from HAM-02-229.gif
F:HAM-05-32-04.abc
Z:EFDSS;PJHeadford
M:6/8
L:1/8
Q:3/8=90
K:D
B|A G E D2B|A G E D2A|"^a"d d d e2c|d3-d2 A|d2d e d c|d2B A B c|
d B B A2F|E3- E3|"^Chorus"B2B B2A|A E F D2||"^alternative bar at a"d d d c2e| W:To the left of the title in the MS is "505" and to the right "Mrs Russell of Upwey" W:Printed at the top right of the page is "17".
W:The first 3 notes of the alternative bar are indistinct, and may be d c d.
W:This transcription is from HAM-02-229.gif
